public/operators/nobg/1xbet.svg

<svg width="120" height="27" viewBox="0 0 120 27" fill="none" xmlns="http://www.w3.org/2000/svg">
<path d="M69.4261 7.88323C70.4985 3.57467 67.8833 0.0092926 61.4769 0.0092926H47.5917L42.3894 21.0817L45.4092 26.2652H55.2869C61.7591 26.2652 66.7732 23.2454 68.062 17.9961C68.7111 15.3056 67.9585 13.4242 66.2652 12.4834V12.4176C67.871 11.3774 69.0056 9.74973 69.4261 7.88323ZM60.9595 17.8268C60.6961 18.9275 59.9529 20.0563 56.8767 20.0563H50.5738L51.6744 15.5408H57.9491C60.9877 15.5314 61.2135 16.6885 60.9219 17.8268H60.9595ZM62.2201 8.02435C61.9943 8.87101 61.3452 9.90581 58.6923 9.90581H53.0479L53.9887 6.23695H59.6331C62.3141 6.21814 62.4458 7.08361 62.2201 8.02435Z" fill="#15A0FF"/>
<path d="M78.1655 16.0958H90.8089L92.2483 9.887H79.6895L80.6678 6.21814H93.1043L94.5436 0.0092926H74.1297L67.6575 26.2558H90.7807L92.2953 20.0469H77.2341L78.1655 16.0958Z" fill="#15A0FF"/>
<path d="M96.3125 0.0092926L94.8638 6.21814H102.418L97.4602 26.2558H105.391L110.358 6.21814H118.448L120 0.0092926H96.3125Z" fill="#15A0FF"/>
<path d="M8.29727 26.2558H0.301035L3.76294 12.2388L4.56256 10.1222L2.44591 12.2388L0.0940734 14.6189L0 7.61983L8.29727 0.0092926H14.7601L8.29727 26.2558Z" fill="white"/>
<path d="M37.1685 15.3809L34.6191 11.0629L46.9897 0.0092926H35.4657L30.7621 4.52482L14.8072 19.1532L7.14966 26.2558H18.0528L26.2466 18.9463L29.0029 23.6499C29.9436 24.8353 31.2701 26.2746 36.8957 26.2746H43.4808L37.1779 15.3715L37.1685 15.3809Z" fill="white"/>
<path d="M29.8778 3.07609V3.01965C29.172 2.03495 28.2301 1.24329 27.1387 0.717316C26.0473 0.191338 24.8413 -0.0521136 23.6313 0.00930215H15.1177L21.4676 10.8089L29.8778 3.07609Z" fill="white"/>
</svg>

<svg xmlns="http://www.w3.org/2000/svg" width="120" height="27" fill="none"><path fill="#15A0FF" d="M69.43 7.88C70.5 3.58 67.88.01 61.48.01H47.59l-5.2 21.07 3.02 5.19h9.88c6.47 0 11.48-3.02 12.77-8.27.65-2.7-.1-4.58-1.8-5.52v-.06a7.32 7.32 0 0 0 3.17-4.54Zm-8.47 9.95c-.26 1.1-1 2.23-4.08 2.23h-6.3l1.1-4.52h6.27c3.04 0 3.26 1.15 2.97 2.29h.04Zm1.26-9.8c-.23.84-.87 1.88-3.53 1.88h-5.64l.94-3.67h5.64c2.68-.02 2.82.84 2.59 1.78ZM78.17 16.1H90.8l1.44-6.21H79.69l.98-3.67H93.1L94.54 0H74.13l-6.47 26.25h23.12l1.52-6.21H77.23l.94-3.95ZM96.31 0l-1.45 6.22h7.56l-4.96 20.04h7.93l4.97-20.04h8.09L120 0H96.31Z"/><path fill="#fff" d="M8.3 26.26h-8l3.46-14.02.8-2.12-2.11 2.12-2.36 2.38-.09-7L8.3.01h6.46L8.3 26.26Z"/><path fill="#fff" d="m37.17 15.38-2.55-4.32L46.99.01H35.47l-4.7 4.51L14.8 19.15l-7.66 7.1h10.9l8.2-7.3 2.75 4.7c.94 1.19 2.27 2.62 7.9 2.62h6.58l-6.3-10.9-.01.01ZM29.88 3.08v-.06A7.23 7.23 0 0 0 23.63.01h-8.51l6.35 10.8 8.4-7.73Z"/></svg>
